app/dist/common/images/huaneng-lancang-river-hydropower.svg

<svg height="18" viewBox="0 0 18 18" width="18" xmlns="http://www.w3.org/2000/svg"><path d="m0 0h18v18h-18z" fill="#f0f3fa"/><path d="m14 5-1.94 8h-3.38l2.1-8zm-7.9 0h3.22l-.52 2.2-2.92-1.34zm1.29 8h-3.39l1.13-4.33 2.95 1.46-.7 2.87zm2.38-4.99-3.9-1.96-.2.7 4 1.53zm-4.15-1.04 3.91 1.97-.1.27-4-1.53.19-.7zm3.68 2.83-3.91-1.97-.18.7 4 1.53.1-.27z" fill="#0055a6"/></svg>

<!-- by TradingView --><svg width="18" height="18" viewBox="0 0 18 18" xmlns="http://www.w3.org/2000/svg"><path fill="#F0F3FA" d="M0 0h18v18H0z"/><path d="m14 5-1.94 8H8.68l2.1-8H14ZM6.1 5h3.22L8.8 7.2 5.88 5.86 6.1 5Zm1.29 8H4l1.13-4.33 2.95 1.46-.7 2.87Zm2.38-4.99-3.9-1.96-.2.7 4 1.53.1-.27ZM5.62 6.97l3.91 1.97-.1.27-4-1.53.19-.7ZM9.3 9.8 5.39 7.83l-.18.7 4 1.53.1-.27Z" fill="#0055A6"/></svg>
